YHN.DEV/Client/yohanapp/src/Images/icons/whatsapp.svg

<svg width="25" height="25" xmlns="http://www.w3.org/2000/svg">

 <g>
  <title>background</title>
  <rect fill="none" id="canvas_background" height="514" width="514" y="-1" x="-1"/>
 </g>
 <g>
  <title>Layer 1</title>
  <g id="surface1">
   <path id="svg_1" fill-rule="evenodd" fill="#4682b4" d="m21.355469,3.589844c-2.351563,-2.355469 -5.476563,-3.652344 -8.808594,-3.652344c-6.859375,0 -12.441406,5.585938 -12.441406,12.449219c0,2.195312 0.574219,4.339843 1.660156,6.222656l-1.765625,6.453125l6.601562,-1.730469c1.820313,0.988281 3.867188,1.515625 5.945313,1.515625l0.003906,0c6.859375,0 12.449219,-5.585937 12.449219,-12.449218c0,-3.328126 -1.296875,-6.453126 -3.644531,-8.808594zm-8.804688,19.15625c-1.859375,0 -3.679687,-0.5 -5.269531,-1.441406l-0.378906,-0.226563l-3.914063,1.023437l1.042969,-3.816406l-0.242188,-0.390625c-1.042968,-1.644531 -1.585937,-3.550781 -1.585937,-5.507812c0,-5.707031 4.640625,-10.347657 10.355469,-10.347657c2.761718,0 5.363281,1.078126 7.316406,3.03125c1.953125,1.957032 3.027344,4.554688 3.027344,7.320313c-0.007813,5.710937 -4.648438,10.355469 -10.351563,10.355469zm5.671875,-7.753906c-0.308594,-0.15625 -1.839844,-0.90625 -2.121094,-1.007813c-0.285156,-0.105469 -0.492187,-0.160156 -0.703124,0.15625c-0.207032,0.308594 -0.804688,1.011719 -0.988282,1.222656c-0.179687,0.203125 -0.363281,0.234375 -0.671875,0.078125c-0.308593,-0.160156 -1.3125,-0.488281 -2.5,-1.546875c-0.925781,-0.824219 -1.550781,-1.84375 -1.734375,-2.152343c-0.179687,-0.3125 -0.019531,-0.484376 0.140625,-0.632813c0.140625,-0.140625 0.308594,-0.363281 0.464844,-0.546875c0.15625,-0.179688 0.207031,-0.308594 0.308594,-0.519531c0.105469,-0.207031 0.054687,-0.386719 -0.023438,-0.542969c-0.078125,-0.160156 -0.703125,-1.691406 -0.957031,-2.3125c-0.25,-0.609375 -0.511719,-0.527344 -0.703125,-0.535156c-0.179687,-0.011719 -0.386719,-0.011719 -0.59375,-0.011719c-0.203125,0 -0.542969,0.078125 -0.828125,0.390625c-0.285156,0.308594 -1.089844,1.0625 -1.089844,2.59375c0,1.53125 1.113282,3.007812 1.269532,3.21875c0.160156,0.207031 2.195312,3.351562 5.316406,4.699219c0.738281,0.316406 1.320312,0.507812 1.769531,0.65625c0.746094,0.234375 1.421875,0.203125 1.957031,0.121093c0.601563,-0.085937 1.84375,-0.75 2.101563,-1.476562c0.261719,-0.726562 0.261719,-1.347656 0.183593,-1.476562c-0.074218,-0.140626 -0.28125,-0.214844 -0.59375,-0.375l-0.003906,0zm0,0"/>
  </g>
 </g>
</svg>

<?xml version="1.0" encoding="UTF-8"?>
<svg xmlns="http://www.w3.org/2000/svg" xmlns:xlink="http://www.w3.org/1999/xlink" width="25pt" height="25pt" viewBox="0 0 25 25" version="1.1">
<g id="surface1">
<path style=" stroke:none;fill-rule:evenodd;fill:rgb(0%,0%,0%);fill-opacity:1;" d="M 21.355469 3.589844 C 19.003906 1.234375 15.878906 -0.0625 12.546875 -0.0625 C 5.6875 -0.0625 0.105469 5.523438 0.105469 12.386719 C 0.105469 14.582031 0.679688 16.726562 1.765625 18.609375 L 0 25.0625 L 6.601562 23.332031 C 8.421875 24.320312 10.46875 24.847656 12.546875 24.847656 L 12.550781 24.847656 C 19.410156 24.847656 25 19.261719 25 12.398438 C 25 9.070312 23.703125 5.945312 21.355469 3.589844 Z M 12.550781 22.746094 C 10.691406 22.746094 8.871094 22.246094 7.28125 21.304688 L 6.902344 21.078125 L 2.988281 22.101562 L 4.03125 18.285156 L 3.789062 17.894531 C 2.746094 16.25 2.203125 14.34375 2.203125 12.386719 C 2.203125 6.679688 6.84375 2.039062 12.558594 2.039062 C 15.320312 2.039062 17.921875 3.117188 19.875 5.070312 C 21.828125 7.027344 22.902344 9.625 22.902344 12.390625 C 22.894531 18.101562 18.253906 22.746094 12.550781 22.746094 Z M 18.222656 14.992188 C 17.914062 14.835938 16.382812 14.085938 16.101562 13.984375 C 15.816406 13.878906 15.609375 13.824219 15.398438 14.140625 C 15.191406 14.449219 14.59375 15.152344 14.410156 15.363281 C 14.230469 15.566406 14.046875 15.597656 13.738281 15.441406 C 13.429688 15.28125 12.425781 14.953125 11.238281 13.894531 C 10.3125 13.070312 9.6875 12.050781 9.503906 11.742188 C 9.324219 11.429688 9.484375 11.257812 9.644531 11.109375 C 9.785156 10.96875 9.953125 10.746094 10.109375 10.5625 C 10.265625 10.382812 10.316406 10.253906 10.417969 10.042969 C 10.523438 9.835938 10.472656 9.65625 10.394531 9.5 C 10.316406 9.339844 9.691406 7.808594 9.4375 7.1875 C 9.1875 6.578125 8.925781 6.660156 8.734375 6.652344 C 8.554688 6.640625 8.347656 6.640625 8.140625 6.640625 C 7.9375 6.640625 7.597656 6.71875 7.3125 7.03125 C 7.027344 7.339844 6.222656 8.09375 6.222656 9.625 C 6.222656 11.15625 7.335938 12.632812 7.492188 12.84375 C 7.652344 13.050781 9.6875 16.195312 12.808594 17.542969 C 13.546875 17.859375 14.128906 18.050781 14.578125 18.199219 C 15.324219 18.433594 16 18.402344 16.535156 18.320312 C 17.136719 18.234375 18.378906 17.570312 18.636719 16.84375 C 18.898438 16.117188 18.898438 15.496094 18.820312 15.367188 C 18.746094 15.226562 18.539062 15.152344 18.226562 14.992188 Z M 18.222656 14.992188 "/>
</g>
</svg>
